!!!!SEGMENT: Ric1002g-Requiem-Communion.krn
!!!id: Ric1002g
!!!AGN: Mass; Communion
!!!SCT: Elzinga (1979)
!!!voices: 6
!!!COM: Jean Richafort
!!!OTL: Communion
!!!OPR: Requiem
**kern	**kern	**kern	**kern	**kern	**kern
*part6	*part5	*part4	*part3	*part2	*part1
*staff6	*staff5	*staff4	*staff3	*staff2	*staff1
*I"Bassus	*I"Tenor III	*I"Tenor II	*I"Tenor I	*I"Altus I	*I"Superius
*I'B	*I'T. III	*I'T. II	*I'T. I	*I'A	*I'S
*clefF4	*clefGv2	*clefGv2	*clefGv2	*clefGv2	*clefG2
*k[]	*k[]	*k[]	*k[]	*k[]	*k[]
*C:	*C:	*C:	*C:	*C:	*C:
*M2/1	*M2/1	*M2/1	*M2/1	*M2/1	*M2/1
*met(C|)	*met(C|)	*met(C|)	*met(C|)	*met(C|)	*met(C|)
!!section: Lux aeterna
!!!OMD: Lux aeterna
=1	=1	=1	=1	=1	=1
!	!LO:TX:a:t=Canon&colon; tenor III/tenor II at the fifth	!	!	!	!
1A	0r	0r	1r	0e	0r
2.c	.	.	1A	.	.
4B	.	.	.	.	.
=2	=2	=2	=2	=2	=2
2A	0r	0r	1c	1e	1r
2G	.	.	.	.	.
1F	.	.	1d	1f	1a
=3	=3	=3	=3	=3	=3
0E	0r	0r	0e	0g	1cc
.	.	.	.	.	1b
=4	=4	=4	=4	=4	=4
2r	0F	0r	1A	1f	1cc
2A	.	.	.	.	.
2.c	.	.	2r	1F	1a
.	.	.	2A	.	.
4B	.	.	.	.	.
=5	=5	=5	=5	=5	=5
4A	1F	0r	1c	2.A	1r
4G	.	.	.	.	.
2.A	.	.	.	.	.
.	.	.	.	4B	.
.	1F	.	2A	2.c	1a
4G	.	.	.	.	.
2F	.	.	[2c	.	.
.	.	.	.	4d	.
=6	=6	=6	=6	=6	=6
0E	0G	0r	2c]	1.e	1cc
.	.	.	4B	.	.
.	.	.	4A	.	.
.	.	.	2G	.	1b
.	.	.	4A	2d	.
.	.	.	4G	.	.
=7	=7	=7	=7	=7	=7
1AA	1E	0c	1.A	1c	1.cc
1A	[1F	.	.	1A	.
.	.	.	4G	.	2b
.	.	.	4F	.	.
=8	=8	=8	=8	=8	=8
2F	1F]	1c	0c	1r	1a
4E	.	.	.	.	.
4D	.	.	.	.	.
1E	1G	1c	.	1e	[1g
=9	=9	=9	=9	=9	=9
0D	0A	0d	2.F	1f	2g]
.	.	.	.	.	4f#i
.	.	.	4G	.	4e
.	.	.	1A	[1d	1f#i
=10	=10	=10	=10	=10	=10
2.G	0r	1B	1G	2d]	0g
.	.	.	.	4c	.
4F	.	.	.	4d	.
4E	.	[1c	2r	1e	.
4D	.	.	.	.	.
2C	.	.	[2G	.	.
=11	=11	=11	=11	=11	=11
2E	0r	1c]	2G]	2r	1r
2F	.	.	1A	2c	.
1D	.	1d	.	1f	1a
.	.	.	2F	.	.
=12	=12	=12	=12	=12	=12
1C	0r	0e	1G	2.e	1cc
.	.	.	.	4f	.
2r	.	.	1E	1g	1b
2G	.	.	.	.	.
=13	=13	=13	=13	=13	=13
2.F	0F	0r	2r	0c	0cc
.	.	.	2A	.	.
4G	.	.	.	.	.
1A	.	.	1A	.	.
=14	=14	=14	=14	=14	=14
2D	1F	0r	1A	0f	0a
1F	.	.	.	.	.
.	1F	.	[1c	.	.
4E	.	.	.	.	.
4D	.	.	.	.	.
=15	=15	=15	=15	=15	=15
0C	0G	0r	2c]	1e	1.cc
.	.	.	4B	.	.
.	.	.	4A	.	.
.	.	.	2.G	2c	.
.	.	.	.	[2e	4b
.	.	.	4F	.	4a
=16	=16	=16	=16	=16	=16
2r	1E	0c	1G	4e]	1g
.	.	.	.	4d	.
2.c	.	.	.	4c	.
.	.	.	.	4B	.
.	[1F	.	1F	[1A	[1a
4B	.	.	.	.	.
[2A	.	.	.	.	.
=17	=17	=17	=17	=17	=17
4A]	1F]	1c	0r	1A]	1a]
4G	.	.	.	.	.
2F	.	.	.	.	.
1E	1G	1c	.	2r	[1g
.	.	.	.	2E	.
=18	=18	=18	=18	=18	=18
0D	0A	0d	1r	2.F	2g]
.	.	.	.	.	4f#i
.	.	.	.	4G	4e
.	.	.	2r	1A	1f#i
.	.	.	2D	.	.
=19	=19	=19	=19	=19	=19
1r	0r	1B	1G	1G	2g
.	.	.	.	.	2e
2r	.	[1c	2F	2r	2f
2E	.	.	2E	2g	2g
=20	=20	=20	=20	=20	=20
0F	0r	1c]	1A	1.f	0a
.	.	1d	1D	.	.
.	.	.	.	2f	.
=21	=21	=21	=21	=21	=21
1G	0r	0e	2r	2e	1g
.	.	.	2G	1d	.
1A	.	.	1c	.	2r
.	.	.	.	2c#i	2e
=22	=22	=22	=22	=22	=22
[0D	0F	0r	2B	0d	2.f
.	.	.	2.A	.	.
.	.	.	.	.	4g
.	.	.	.	.	2a
.	.	.	4G	.	.
.	.	.	4F	.	[2b
.	.	.	4E	.	.
=23	=23	=23	=23	=23	=23
0D]	1F	0r	2D	2r	2b]
.	.	.	2d	2A	2.a
.	1F	.	2A	1d	.
.	.	.	.	.	4g
.	.	.	[2d	.	4f
.	.	.	.	.	4e
=24	=24	=24	=24	=24	=24
1r	0G	0r	4d]	2B	2d
.	.	.	4c	.	.
.	.	.	4B	2G	1dd
.	.	.	4A	.	.
2r	.	.	2.G	[1g	.
2G	.	.	.	.	2b
.	.	.	4F	.	.
=25	=25	=25	=25	=25	=25
2C	1E	0c	2G	1g]	1cc
2.c	.	.	2C	.	.
.	[1F	.	2r	[1c	[1a
4B	.	.	.	.	.
[2A	.	.	2c	.	.
=26	=26	=26	=26	=26	=26
4A]	1F]	1c	2.A	2c]	1a]
4G	.	.	.	.	.
2F	.	.	.	2d	.
.	.	.	4B	.	.
1E	1G	1c	2c	1e	[1g
.	.	.	2C	.	.
=27	=27	=27	=27	=27	=27
0D	0A	0d	2.F	1f	2g]
.	.	.	.	.	4f#i
.	.	.	4G	.	4e
.	.	.	2A	[1d	1f#i
.	.	.	2D	.	.
=28	=28	=28	=28	=28	=28
2r	[0Gl	1B	1.G	1d]	[0gl
2GG	.	.	.	.	.
[1C	.	[1c	.	[1e	.
.	.	.	2C	.	.
=29	=29	=29	=29	=29	=29
1C]	0G_	1c]	1C	1e]	0g_
1BB	.	1d	2r	1d	.
.	.	.	[2G	.	.
=30	=30	=30	=30	=30	=30
0C	0G_	0e	2G]	1.c	0g_
.	.	.	2G	.	.
.	.	.	2E	.	.
.	.	.	2F	4B	.
.	.	.	.	4A	.
=31	=31	=31	=31	=31	=31
[0GGl	0G_	[0dl	1.G	[0Bl	0g_
.	.	.	4F	.	.
.	.	.	4E	.	.
=	=	=	=	=	=
00GG]	00G]	00d]	00D	00B]	00g]
=||	=||	=||	=||	=||	=||
*M2/1	*M2/1	*M2/1	*M2/1	*M2/1	*M2/1
*met(C|)	*met(C|)	*met(C|)	*met(C|)	*met(C|)	*met(C|)
!!section: Et lux perpetua
!!!OMD: Et lux perpetua
!	!LO:TX:a:t=Canon&colon; tenor III/tenor II at the fifth	!	!	!	!
0C	0r	0r	0G	0c	0cc
=32	=32	=32	=32	=32	=32
1F	0r	0r	1.A	1.c	1cc
1F	.	.	.	.	1cc
.	.	.	2F	2d	.
=33	=33	=33	=33	=33	=33
1C	0r	0r	1c	1e	1cc
1C	.	.	1c	1e	1cc
=34	=34	=34	=34	=34	=34
0F	0F	0r	0A	1.f	0cc
.	.	.	.	4e	.
.	.	.	.	4d	.
=35	=35	=35	=35	=35	=35
0A	1F	0r	1r	0c	0cc
.	1F	.	1A	.	.
=36	=36	=36	=36	=36	=36
1G	0G	0r	1d	1r	1b
[1C	.	.	2.c	1G	[1cc
.	.	.	4B	.	.
=37	=37	=37	=37	=37	=37
1C]	1E	0c	2A	1.c	2cc]
.	.	.	2G	.	2b
[1F	[1F	.	1F	.	[1a
.	.	.	.	2A	.
=38	=38	=38	=38	=38	=38
1F]	1F]	1c	1r	2.c	2a]
.	.	.	.	.	2g
.	.	.	.	4d	.
1E	1G	1c	2r	1e	[1g
.	.	.	2C	.	.
=39	=39	=39	=39	=39	=39
0D	0A	0d	2.F	1f	2g]
.	.	.	.	.	4f#i
.	.	.	4G	.	4e
.	.	.	1A	[1d	1f#i
=40	=40	=40	=40	=40	=40
2.G	0r	1B	1G	2d]	0g
.	.	.	.	4c	.
4F	.	.	.	4d	.
4E	.	[1c	2r	1e	.
4D	.	.	.	.	.
2C	.	.	[2G	.	.
=41	=41	=41	=41	=41	=41
2E	0r	1c]	2G]	2r	1r
2F	.	.	1A	2c	.
1D	.	1d	.	1f	1a
.	.	.	2F	.	.
=42	=42	=42	=42	=42	=42
1C	0r	0e	1G	2.e	1cc
.	.	.	.	4f	.
2r	.	.	1E	1g	1b
2G	.	.	.	.	.
=43	=43	=43	=43	=43	=43
2.F	0F	0r	2r	0c	0cc
.	.	.	2A	.	.
4G	.	.	.	.	.
1A	.	.	1A	.	.
=44	=44	=44	=44	=44	=44
2D	1F	0r	1A	0f	0a
1F	.	.	.	.	.
.	1F	.	[1c	.	.
4E	.	.	.	.	.
4D	.	.	.	.	.
=45	=45	=45	=45	=45	=45
0C	0G	0r	2c]	1e	1.cc
.	.	.	4B	.	.
.	.	.	4A	.	.
.	.	.	2.G	2c	.
.	.	.	.	[2e	4b
.	.	.	4F	.	4a
=46	=46	=46	=46	=46	=46
2r	1E	0c	1G	4e]	1g
.	.	.	.	4d	.
2.c	.	.	.	4c	.
.	.	.	.	4B	.
.	[1F	.	1F	[1A	[1a
4B	.	.	.	.	.
[2A	.	.	.	.	.
=47	=47	=47	=47	=47	=47
4A]	1F]	1c	0r	1A]	1a]
4G	.	.	.	.	.
2F	.	.	.	.	.
1E	1G	1c	.	2r	[1g
.	.	.	.	2E	.
=48	=48	=48	=48	=48	=48
0D	0A	0d	1r	2.F	2g]
.	.	.	.	.	4f#i
.	.	.	.	4G	4e
.	.	.	2r	1A	1f#i
.	.	.	2D	.	.
=49	=49	=49	=49	=49	=49
1r	0r	1B	1G	1G	2g
.	.	.	.	.	2e
2r	.	[1c	2F	2r	2f
2E	.	.	2E	2g	2g
=50	=50	=50	=50	=50	=50
0F	0r	1c]	1A	1.f	0a
.	.	1d	1D	.	.
.	.	.	.	2f	.
=51	=51	=51	=51	=51	=51
1G	0r	0e	2r	2e	1g
.	.	.	2G	1d	.
1A	.	.	1c	.	2r
.	.	.	.	2c#i	2e
=52	=52	=52	=52	=52	=52
[0D	0F	0r	2B	0d	2.f
.	.	.	2.A	.	.
.	.	.	.	.	4g
.	.	.	.	.	2a
.	.	.	4G	.	.
.	.	.	4F	.	[2b
.	.	.	4E	.	.
=53	=53	=53	=53	=53	=53
0D]	1F	0r	2D	2r	2b]
.	.	.	2d	2A	2.a
.	1F	.	2A	1d	.
.	.	.	.	.	4g
.	.	.	[2d	.	4f
.	.	.	.	.	4e
=54	=54	=54	=54	=54	=54
1r	0G	0r	4d]	2B	2d
.	.	.	4c	.	.
.	.	.	4B	2G	1dd
.	.	.	4A	.	.
2r	.	.	2.G	[1g	.
2G	.	.	.	.	2b
.	.	.	4F	.	.
=55	=55	=55	=55	=55	=55
2C	1E	0c	2G	1g]	1cc
2.c	.	.	2C	.	.
.	[1F	.	2r	[1c	[1a
4B	.	.	.	.	.
[2A	.	.	2c	.	.
=56	=56	=56	=56	=56	=56
4A]	1F]	1c	2.A	2c]	1a]
4G	.	.	.	.	.
2F	.	.	.	2d	.
.	.	.	4B	.	.
1E	1G	1c	2c	1e	[1g
.	.	.	2C	.	.
=57	=57	=57	=57	=57	=57
0D	0A	0d	2.F	1f	2g]
.	.	.	.	.	4f#i
.	.	.	4G	.	4e
.	.	.	2A	[1d	1f#i
.	.	.	2D	.	.
=58	=58	=58	=58	=58	=58
2r	[0Gl	1B	1.G	1d]	[0gl
2GG	.	.	.	.	.
[1C	.	[1c	.	[1e	.
.	.	.	2C	.	.
=59	=59	=59	=59	=59	=59
1C]	0G_	1c]	1C	1e]	0g_
1BB	.	1d	2r	1d	.
.	.	.	[2G	.	.
=60	=60	=60	=60	=60	=60
0C	0G_	0e	2G]	1.c	0g_
.	.	.	2G	.	.
.	.	.	2.E	.	.
.	.	.	.	4B	.
.	.	.	4F	4A	.
=61	=61	=61	=61	=61	=61
[0GGl	0G_	[0dl	1.G	[0Bl	0g_
.	.	.	4F	.	.
.	.	.	4E	.	.
=62	=62	=62	=62	=62	=62
00GG]	00G]	00d]	00Dl	00B]	00g]
==	==	==	==	==	==
*-	*-	*-	*-	*-	*-
!!!system-decoration: [*]
!!!RDF**kern: i = editorial accidental
!!!RDF**kern: l = terminal long
!!!ENC: Benjamin Ory
!!!END: 2021/4/8
!!!EED: Benjamin Ory
!!!EEV: 2021/05/02
!!!YEC: Copyright 2021 Benjamin Ory, All Rights Reserved
!!!ONB: Translated from MusicXML on 2021/05/02
